X: 419
%
U:~=!turn!
T: Miss Oliphant
C:
O:Scotland
B:Keith Norman MacDonald : "The Skye collection of the best reels & strathspeys extant" : 1887
Z:Ralph Palmer
R:Strathspey
M:C
L:1/8
K:D
d | (A<F)(F>D) EDEF | (A<F)(F>A) BABd | A<FF>D EDEF | (DB,A,B,) D2 D :|
(d/4e/4f/4g/4) a3 g<f dd | f<g f<a f<e de/2f/2 | a>baf f<e de/2f/2 | (dBAB) d2 d2 |
(d/4e/4f/4g/4) a3 g<f dd | f<g f<a f<e de/2f/2 | dBBd AFEF | (DB,A,B,) D2 D2 |]
W:A Favourite tune in Skye


